icons/filter.svg

<svg width="24" height="24" viewBox="0 0 24 24" fill="none" xmlns="http://www.w3.org/2000/svg">
<path fill-rule="evenodd" clip-rule="evenodd" d="M2 4C2 3.44772 2.44772 3 3 3H21C21.5523 3 22 3.44772 22 4C22 4.55228 21.5523 5 21 5H20.5352L15 13.3028V21C15 21.5523 14.5523 22 14 22H10C9.44772 22 9 21.5523 9 21V13.3028L3.46482 5H3C2.44772 5 2 4.55228 2 4ZM5.86852 5L10.8321 12.4453C10.9416 12.6096 11 12.8026 11 13V20H13V13C13 12.8026 13.0584 12.6096 13.1679 12.4453L18.1315 5H5.86852Z" fill="black"/>
</svg>

<svg
  width="24"
  height="24"
  viewBox="0 0 24 24"
  xmlns="http://www.w3.org/2000/svg"
>
  <path
    fill-rule="evenodd"
    clip-rule="evenodd"
    d="M2 4a1 1 0 0 1 1-1h18a1 1 0 1 1 0 2h-.465L15 13.303V21a1 1 0 0 1-1 1h-4a1 1 0 0 1-1-1v-7.697L3.465 5H3a1 1 0 0 1-1-1zm3.869 1l4.963 7.445A1 1 0 0 1 11 13v7h2v-7a1 1 0 0 1 .168-.555L18.13 5H5.87z"
  />
</svg>
